;FLAVOR:Marlin
;TIME:15977
;Filament used: 13.5951m
;Layer height: 0.16
;MINX:127.2
;MINY:156.7
;MINZ:0.2
;MAXX:222.8
;MAXY:193.3
;MAXZ:54.84
;Generated with Cura_SteamEngine 4.10.0
M140 S80
M105
M190 S80
M104 S230
M105
M109 S230
M82 ;absolute extrusion mode
M201 X500.00 Y500.00 Z100.00 E5000.00 ;Setup machine max acceleration
M203 X500.00 Y500.00 Z10.00 E50.00 ;Setup machine max feedrate
M204 P500.00 R1000.00 T500.00 ;Setup Print/Retract/Travel acceleration
M205 X8.00 Y8.00 Z0.40 E5.00 ;Setup Jerk
M220 S100 ;Reset Feedrate
M221 S100 ;Reset Flowrate

G28 ;Home
M420 S1 Z2 ;Enable ABL using saved Mesh and Fade Height

G92 E0 ;Reset Extruder
G1 Z2.0 F3000 ;Move Z Axis up
G1 X10.1 Y20 Z0.28 F5000.0 ;Move to start position
G1 X10.1 Y200.0 Z0.28 F1500.0 E15 ;Draw the first line
G1 X10.4 Y200.0 Z0.28 F5000.0 ;Move to side a little
G1 X10.4 Y20 Z0.28 F1500.0 E30 ;Draw the second line
G92 E0 ;Reset Extruder
G1 Z2.0 F3000 ;Move Z Axis up

G92 E0
G92 E0
G1 F1500 E-6.5
;LAYER_COUNT:300
;LAYER:0
M107
G0 F6000 X130.188 Y158.455 Z0.2
;TYPE:SKIRT
G1 F1500 E0
G1 F1200 X130.824 Y157.988 E0.02624
G1 X131.504 Y157.587 E0.0525
G1 X132.222 Y157.257 E0.07878
G1 X132.969 Y157.002 E0.10504
G1 X133.738 Y156.823 E0.1313
G1 X134.522 Y156.723 E0.15758
G1 X135.117 Y156.7 E0.17739
G1 X214.883 Y156.7 E2.83042
G1 X215.672 Y156.74 E2.85669
G1 X216.452 Y156.859 E2.88294
G1 X217.217 Y157.057 E2.90922
G1 X217.957 Y157.331 E2.93546
G1 X218.666 Y157.679 E2.96173
G1 X219.337 Y158.097 E2.98803
G1 X219.961 Y158.58 E3.01427
G1 X220.398 Y158.985 E3.03409
G1 X220.515 Y159.102 E3.03959
G1 X221.045 Y159.688 E3.06587
G1 X221.512 Y160.324 E3.09211
G1 X221.913 Y161.004 E3.11837
G1 X222.243 Y161.722 E3.14465
G1 X222.498 Y162.469 E3.17091
G1 X222.677 Y163.238 E3.19717
G1 X222.777 Y164.022 E3.22345
G1 X222.8 Y164.617 E3.24326
G1 X222.8 Y185.383 E3.93394
G1 X222.76 Y186.172 E3.96021
G1 X222.641 Y186.952 E3.98646
G1 X222.443 Y187.717 E4.01274
G1 X222.169 Y188.457 E4.03899
G1 X221.821 Y189.166 E4.06525
G1 X221.403 Y189.837 E4.09155
G1 X220.92 Y190.461 E4.11779
G1 X220.515 Y190.898 E4.13761
G1 X220.398 Y191.015 E4.14311
G1 X219.812 Y191.545 E4.16939
G1 X219.176 Y192.012 E4.19564
G1 X218.496 Y192.413 E4.22189
G1 X217.778 Y192.743 E4.24818
G1 X217.031 Y192.998 E4.27443
G1 X216.262 Y193.177 E4.30069
G1 X215.478 Y193.277 E4.32698
G1 X214.883 Y193.3 E4.34678
G1 X135.117 Y193.3 E6.99981
G1 X134.328 Y193.26 E7.02609
G1 X133.548 Y193.141 E7.05233
G1 X132.783 Y192.943 E7.07861
G1 X132.043 Y192.669 E7.10486
G1 X131.334 Y192.321 E7.13113
G1 X130.663 Y191.903 E7.15742
G1 X130.039 Y191.42 E7.18366
G1 X129.602 Y191.015 E7.20348
G1 X129.485 Y190.898 E7.20898
G1 X128.955 Y190.312 E7.23526
G1 X128.488 Y189.676 E7.26151
G1 X128.087 Y188.996 E7.28776
G1 X127.757 Y188.278 E7.31405
G1 X127.502 Y187.531 E7.3403
G1 X127.323 Y186.762 E7.36656
G1 X127.223 Y185.978 E7.39285
G1 X127.2 Y185.383 E7.41265
G1 X127.2 Y164.617 E8.10333
G1 X127.24 Y163.828 E8.12961
G1 X127.359 Y163.048 E8.15585
G1 X127.557 Y162.283 E8.18213
G1 X127.831 Y161.543 E8.20838
G1 X128.179 Y160.834 E8.23465
G1 X128.597 Y160.163 E8.26094
G1 X129.08 Y159.539 E8.28719
G1 X129.485 Y159.102 E8.307
G1 X129.602 Y158.985 E8.31251
G1 X130.188 Y158.455 E8.33879
G0 F6000 X130.456 Y158.753
G1 F1200 X131.078 Y158.3 E8.36438
G1 X131.743 Y157.914 E8.38995
G1 X132.445 Y157.599 E8.41555
G1 X133.176 Y157.359 E8.44114
G1 X133.927 Y157.196 E8.4667
G1 X134.692 Y157.112 E8.49229
G1 X135.117 Y157.1 E8.50643
G1 X214.883 Y157.1 E11.15946
G1 X215.651 Y157.14 E11.18504
G1 X216.411 Y157.259 E11.21063
G1 X217.154 Y157.457 E11.2362
G1 X217.873 Y157.731 E11.26179
G1 X218.559 Y158.078 E11.28736
G1 X219.206 Y158.494 E11.31294
G1 X219.806 Y158.975 E11.33852
G1 X220.116 Y159.267 E11.35269
G1 X220.233 Y159.384 E11.35819
G1 X220.747 Y159.956 E11.38377
G1 X221.2 Y160.578 E11.40936
G1 X221.586 Y161.243 E11.43493
G1 X221.901 Y161.945 E11.46053
G1 X222.141 Y162.676 E11.48612
G1 X222.304 Y163.427 E11.51168
G1 X222.388 Y164.192 E11.53727
G1 X222.4 Y164.617 E11.55141
G1 X222.4 Y185.383 E12.24209
G1 X222.36 Y186.151 E12.26767
G1 X222.241 Y186.911 E12.29326
G1 X222.043 Y187.654 E12.31883
G1 X221.769 Y188.373 E12.34442
G1 X221.422 Y189.059 E12.36999
G1 X221.006 Y189.706 E12.39558
G1 X220.525 Y190.306 E12.42115
G1 X220.233 Y190.616 E12.43532
G1 X220.116 Y190.733 E12.44082
G1 X219.544 Y191.247 E12.4664
G1 X218.922 Y191.7 E12.49199
G1 X218.257 Y192.086 E12.51757
G1 X217.555 Y192.401 E12.54316
G1 X216.824 Y192.641 E12.56875
G1 X216.073 Y192.804 E12.59431
G1 X215.308 Y192.888 E12.6199
G1 X214.883 Y192.9 E12.63405
G1 X135.117 Y192.9 E15.28707
G1 X134.349 Y192.86 E15.31265
G1 X133.589 Y192.741 E15.33824
G1 X132.846 Y192.543 E15.36381
G1 X132.127 Y192.269 E15.3894
G1 X131.441 Y191.922 E15.41497
G1 X130.794 Y191.506 E15.44056
G1 X130.194 Y191.025 E15.46613
G1 X129.884 Y190.733 E15.4803
G1 X129.767 Y190.616 E15.4858
G1 X129.253 Y190.044 E15.51138
G1 X128.8 Y189.422 E15.53697
G1 X128.414 Y188.757 E15.56255
G1 X128.099 Y188.055 E15.58814
G1 X127.859 Y187.324 E15.61373
G1 X127.696 Y186.573 E15.63929
G1 X127.612 Y185.808 E15.66488
G1 X127.6 Y185.383 E15.67903
G1 X127.6 Y164.617 E16.36971
G1 X127.64 Y163.849 E16.39528
G1 X127.759 Y163.089 E16.42087
G1 X127.957 Y162.346 E16.44644
G1 X128.231 Y161.627 E16.47204
G1 X128.578 Y160.941 E16.49761
G1 X128.994 Y160.294 E16.52319
G1 X129.475 Y159.694 E16.54877
G1 X129.767 Y159.384 E16.56293
G1 X129.884 Y159.267 E16.56843
G1 X130.456 Y158.753 E16.59401
G0 F6000 X130.724 Y159.05
G1 F1200 X131.33 Y158.613 E16.61886
G1 X131.98 Y158.242 E16.64375
G1 X132.666 Y157.943 E16.66864
G1 X133.38 Y157.719 E16.69353
G1 X134.113 Y157.572 E16.7184
G1 X135.117 Y157.5 E16.75188
G1 X214.883 Y157.5 E19.4049
G1 X215.63 Y157.54 E19.42979
G1 X216.368 Y157.659 E19.45465
G1 X217.09 Y157.857 E19.47955
G1 X217.786 Y158.13 E19.50441
G1 X218.449 Y158.477 E19.5293
G1 X219.072 Y158.892 E19.5542
G1 X219.833 Y159.55 E19.58766
G1 X219.95 Y159.667 E19.59317
G1 X220.45 Y160.224 E19.61806
G1 X220.887 Y160.83 E19.64291
G1 X221.258 Y161.48 E19.6678
G1 X221.557 Y162.166 E19.69269
G1 X221.781 Y162.88 E19.71758
G1 X221.928 Y163.613 E19.74245
G1 X222 Y164.617 E19.77593
G1 X222 Y185.383 E20.46661
G1 X221.96 Y186.13 E20.49149
G1 X221.841 Y186.868 E20.51635
G1 X221.643 Y187.59 E20.54125
G1 X221.37 Y188.286 E20.56612
G1 X221.023 Y188.949 E20.591
G1 X220.608 Y189.572 E20.6159
G1 X219.95 Y190.333 E20.64936
G1 X219.833 Y190.45 E20.65487
G1 X219.276 Y190.95 E20.67976
G1 X218.67 Y191.387 E20.70461
G1 X218.02 Y191.758 E20.7295
G1 X217.334 Y192.057 E20.75439
G1 X216.62 Y192.281 E20.77928
G1 X215.887 Y192.428 E20.80415
G1 X214.883 Y192.5 E20.83763
G1 X135.117 Y192.5 E23.49065
G1 X134.37 Y192.46 E23.51554
G1 X133.632 Y192.341 E23.5404
G1 X132.91 Y192.143 E23.5653
G1 X132.214 Y191.87 E23.59016
G1 X131.551 Y191.523 E23.61505
G1 X130.928 Y191.108 E23.63995
G1 X130.167 Y190.45 E23.67341
G1 X130.05 Y190.333 E23.67892
G1 X129.55 Y189.776 E23.70381
G1 X129.113 Y189.17 E23.72866
G1 X128.742 Y188.52 E23.75355
G1 X128.443 Y187.834 E23.77844
G1 X128.219 Y187.12 E23.80333
G1 X128.072 Y186.387 E23.8282
G1 X128 Y185.383 E23.86168
G1 X128 Y164.617 E24.55236
G1 X128.04 Y163.87 E24.57724
G1 X128.159 Y163.132 E24.6021
G1 X128.357 Y162.41 E24.627
G1 X128.63 Y161.714 E24.65187
G1 X128.977 Y161.051 E24.67675
G1 X129.392 Y160.428 E24.70165
G1 X130.05 Y159.667 E24.73511
G1 X130.167 Y159.55 E24.74062
G1 X130.724 Y159.05 E24.76551
G0 F6000 X130.991 Y159.349
G1 F1200 X131.582 Y158.926 E24.78968
G1 X132.216 Y158.572 E24.81384
G1 X132.885 Y158.289 E24.838
G1 X133.581 Y158.081 E24.86216
G1 X134.296 Y157.951 E24.88633
G1 X135.117 Y157.9 E24.91369
G1 X214.883 Y157.9 E27.56671
G1 X215.608 Y157.94 E27.59086
G1 X216.325 Y158.059 E27.61504
G1 X217.024 Y158.257 E27.6392
G1 X217.697 Y158.53 E27.66336
G1 X218.336 Y158.875 E27.68751
G1 X218.933 Y159.289 E27.71167
G1 X219.55 Y159.833 E27.73903
G1 X219.667 Y159.95 E27.74454
G1 X220.151 Y160.491 E27.76868
G1 X220.574 Y161.082 E27.79285
G1 X220.928 Y161.716 E27.817
G1 X221.211 Y162.385 E27.84116
G1 X221.419 Y163.081 E27.86532
G1 X221.549 Y163.796 E27.8895
G1 X221.6 Y164.617 E27.91685
G1 X221.6 Y185.383 E28.60753
G1 X221.56 Y186.108 E28.63169
G1 X221.441 Y186.825 E28.65586
G1 X221.243 Y187.524 E28.68002
G1 X220.97 Y188.197 E28.70418
G1 X220.625 Y188.836 E28.72833
G1 X220.211 Y189.433 E28.75249
G1 X219.667 Y190.05 E28.77985
G1 X219.55 Y190.167 E28.78536
G1 X219.009 Y190.651 E28.8095
G1 X218.418 Y191.074 E28.83367
G1 X217.784 Y191.428 E28.85782
G1 X217.115 Y191.711 E28.88198
G1 X216.419 Y191.919 E28.90615
G1 X215.704 Y192.049 E28.93032
G1 X214.883 Y192.1 E28.95768
G1 X135.117 Y192.1 E31.6107
G1 X134.392 Y192.06 E31.63485
G1 X133.675 Y191.941 E31.65903
G1 X132.976 Y191.743 E31.68319
G1 X132.303 Y191.47 E31.70735
G1 X131.664 Y191.125 E31.7315
G1 X131.067 Y190.711 E31.75566
G1 X130.45 Y190.167 E31.78302
G1 X130.333 Y190.05 E31.78853
G1 X129.849 Y189.509 E31.81267
G1 X129.426 Y188.918 E31.83684
G1 X129.072 Y188.284 E31.86099
G1 X128.789 Y187.615 E31.88515
G1 X128.581 Y186.919 E31.90931
G1 X128.451 Y186.204 E31.93348
G1 X128.4 Y185.383 E31.96084
G1 X128.4 Y164.617 E32.65152
G1 X128.44 Y163.892 E32.67567
G1 X128.559 Y163.175 E32.69985
G1 X128.757 Y162.476 E32.72401
G1 X129.03 Y161.803 E32.74817
G1 X129.375 Y161.164 E32.77232
G1 X129.789 Y160.567 E32.79648
G1 X130.333 Y159.95 E32.82384
G1 X130.45 Y159.833 E32.82935
G1 X130.991 Y159.349 E32.85349
G0 F6000 X131.258 Y159.647
G1 F1200 X131.833 Y159.241 E32.8769
G1 X132.451 Y158.903 E32.90033
G1 X133.102 Y158.636 E32.92373
G1 X133.78 Y158.446 E32.94715
G1 X134.475 Y158.333 E32.97057
G1 X135.117 Y158.3 E32.99195
G1 X214.883 Y158.3 E35.64498
G1 X215.586 Y158.34 E35.6684
G1 X216.28 Y158.459 E35.69182
G1 X216.955 Y158.657 E35.71521
G1 X217.604 Y158.929 E35.73862
G1 X218.218 Y159.274 E35.76204
G1 X218.789 Y159.685 E35.78544
G1 X219.267 Y160.116 E35.80685
G1 X219.384 Y160.233 E35.81235
G1 X219.853 Y160.758 E35.83577
G1 X220.259 Y161.333 E35.85918
G1 X220.597 Y161.951 E35.88261
G1 X220.864 Y162.602 E35.90601
G1 X221.054 Y163.28 E35.92943
G1 X221.167 Y163.975 E35.95285
G1 X221.2 Y164.617 E35.97423
G1 X221.2 Y185.383 E36.66491
G1 X221.16 Y186.086 E36.68833
G1 X221.041 Y186.78 E36.71175
G1 X220.843 Y187.455 E36.73515
G1 X220.571 Y188.104 E36.75855
G1 X220.226 Y188.718 E36.78198
G1 X219.815 Y189.289 E36.80538
G1 X219.384 Y189.767 E36.82678
G1 X219.267 Y189.884 E36.83229
G1 X218.742 Y190.353 E36.8557
G1 X218.167 Y190.759 E36.87911
G1 X217.549 Y191.097 E36.90254
G1 X216.898 Y191.364 E36.92594
G1 X216.22 Y191.554 E36.94936
G1 X215.525 Y191.667 E36.97278
G1 X214.883 Y191.7 E36.99416
G1 X135.117 Y191.7 E39.64719
G1 X134.414 Y191.66 E39.67061
G1 X133.72 Y191.541 E39.69403
G1 X133.045 Y191.343 E39.71743
G1 X132.396 Y191.071 E39.74083
G1 X131.782 Y190.726 E39.76426
G1 X131.211 Y190.315 E39.78766
G1 X130.733 Y189.884 E39.80906
G1 X130.616 Y189.767 E39.81457
G1 X130.147 Y189.242 E39.83798
G1 X129.741 Y188.667 E39.86139
G1 X129.403 Y188.049 E39.88482
G1 X129.136 Y187.398 E39.90822
G1 X128.946 Y186.72 E39.93164
G1 X128.833 Y186.025 E39.95506
G1 X128.8 Y185.383 E39.97644
G1 X128.8 Y164.617 E40.66712
G1 X128.84 Y163.914 E40.69054
G1 X128.959 Y163.22 E40.71396
G1 X129.157 Y162.545 E40.73736
G1 X129.429 Y161.896 E40.76076
G1 X129.774 Y161.282 E40.78419
G1 X130.185 Y160.711 E40.80759
G1 X130.616 Y160.233 E40.82899
G1 X130.733 Y160.116 E40.8345
G1 X131.258 Y159.647 E40.85791
G0 F6000 X131.525 Y159.946
G1 F1200 X132.083 Y159.557 E40.88054
G1 X132.683 Y159.235 E40.90318
G1 X133.317 Y158.986 E40.92584
G1 X133.976 Y158.813 E40.9485
G1 X134.65 Y158.719 E40.97113
G1 X135.117 Y158.7 E40.98668
G1 X214.883 Y158.7 E43.63971
G1 X215.563 Y158.74 E43.66236
G1 X216.233 Y158.859 E43.685
G1 X216.885 Y159.056 E43.70765
G1 X217.509 Y159.328 E43.73029
G1 X218.097 Y159.672 E43.75295
G1 X218.641 Y160.082 E43.77561
G1 X218.984 Y160.399 E43.79114
G1 X219.101 Y160.516 E43.79664
G1 X219.554 Y161.025 E43.81931
G1 X219.943 Y161.583 E43.84193
G1 X220.265 Y162.183 E43.86458
G1 X220.514 Y162.817 E43.88723
G1 X220.687 Y163.476 E43.90989
G1 X220.781 Y164.15 E43.93253
G1 X220.8 Y164.617 E43.94807
G1 X220.8 Y185.383 E44.63875
G1 X220.76 Y186.063 E44.66141
G1 X220.641 Y186.733 E44.68404
G1 X220.444 Y187.385 E44.7067
G1 X220.172 Y188.009 E44.72934
G1 X219.828 Y188.597 E44.75199
G1 X219.418 Y189.141 E44.77465
G1 X219.101 Y189.484 E44.79019
G1 X218.984 Y189.601 E44.79569
G1 X218.475 Y190.054 E44.81835
G1 X217.917 Y190.443 E44.84098
G1 X217.317 Y190.765 E44.86362
G1 X216.683 Y191.014 E44.88628
G1 X216.024 Y191.187 E44.90894
G1 X215.35 Y191.281 E44.93157
G1 X214.883 Y191.3 E44.94712
G1 X135.117 Y191.3 E47.60015
G1 X134.437 Y191.26 E47.6228
G1 X133.767 Y191.141 E47.64544
G1 X133.115 Y190.944 E47.66809
G1 X132.491 Y190.672 E47.69073
G1 X131.903 Y190.328 E47.71339
G1 X131.359 Y189.918 E47.73605
G1 X131.016 Y189.601 E47.75158
G1 X130.899 Y189.484 E47.75708
G1 X130.446 Y188.975 E47.77975
G1 X130.057 Y188.417 E47.80237
G1 X129.735 Y187.817 E47.82502
G1 X129.486 Y187.183 E47.84767
G1 X129.313 Y186.524 E47.87033
G1 X129.219 Y185.85 E47.89297
G1 X129.2 Y185.383 E47.90851
G1 X129.2 Y164.617 E48.59919
G1 X129.24 Y163.937 E48.62185
G1 X129.359 Y163.267 E48.64448
G1 X129.556 Y162.615 E48.66714
G1 X129.828 Y161.991 E48.68978
G1 X130.172 Y161.403 E48.71244
G1 X130.582 Y160.859 E48.73509
G1 X130.899 Y160.516 E48.75063
G1 X131.016 Y160.399 E48.75613
G1 X131.525 Y159.946 E48.77879
G0 F6000 X131.791 Y160.246
G1 F1200 X132.332 Y159.874 E48.80063
G1 X132.914 Y159.57 E48.82247
G1 X133.529 Y159.339 E48.84432
G1 X134.168 Y159.184 E48.86619
G1 X135.117 Y159.1 E48.89788
G1 X214.883 Y159.1 E51.5509
G1 X215.539 Y159.14 E51.57276
G1 X216.185 Y159.259 E51.59461
G1 X216.812 Y159.456 E51.61647
G1 X217.41 Y159.728 E51.63832
G1 X217.971 Y160.07 E51.66017
G1 X218.701 Y160.682 E51.69186
G1 X218.818 Y160.799 E51.69736
G1 X219.254 Y161.291 E51.71923
G1 X219.626 Y161.832 E51.74106
G1 X219.93 Y162.414 E51.7629
G1 X220.161 Y163.029 E51.78475
G1 X220.316 Y163.668 E51.80662
G1 X220.4 Y164.617 E51.83831
G1 X220.4 Y185.383 E52.52899
G1 X220.36 Y186.039 E52.55085
G1 X220.241 Y186.685 E52.5727
G1 X220.044 Y187.312 E52.59455
G1 X219.772 Y187.91 E52.6164
G1 X219.43 Y188.471 E52.63826
G1 X218.818 Y189.201 E52.66994
G1 X218.701 Y189.318 E52.67544
G1 X218.209 Y189.754 E52.69731
G1 X217.668 Y190.126 E52.71915
G1 X217.086 Y190.43 E52.74099
G1 X216.471 Y190.661 E52.76284
G1 X215.832 Y190.816 E52.78471
G1 X214.883 Y190.9 E52.81639
G1 X135.117 Y190.9 E55.46942
G1 X134.461 Y190.86 E55.49128
G1 X133.815 Y190.741 E55.51313
G1 X133.188 Y190.544 E55.53499
G1 X132.59 Y190.272 E55.55684
G1 X132.029 Y189.93 E55.57869
G1 X131.299 Y189.318 E55.61037
G1 X131.182 Y189.201 E55.61588
G1 X130.746 Y188.709 E55.63774
G1 X130.374 Y188.168 E55.65958
G1 X130.07 Y187.586 E55.68142
G1 X129.839 Y186.971 E55.70327
G1 X129.684 Y186.332 E55.72514
G1 X129.6 Y185.383 E55.75682
G1 X129.6 Y164.617 E56.4475
G1 X129.64 Y163.961 E56.46936
G1 X129.759 Y163.315 E56.49121
G1 X129.956 Y162.688 E56.51307
G1 X130.228 Y162.09 E56.53492
G1 X130.57 Y161.529 E56.55677
G1 X131.182 Y160.799 E56.58846
G1 X131.299 Y160.682 E56.59396
G1 X131.791 Y160.246 E56.61583
G0 F6000 X132.056 Y160.547
G1 F1200 X132.579 Y160.192 E56.63685
G1 X133.143 Y159.906 E56.65788
G1 X133.738 Y159.694 E56.67889
G1 X134.356 Y159.558 E56.69994
G1 X135.117 Y159.5 E56.72532
G1 X214.883 Y159.5 E59.37835
G1 X215.514 Y159.54 E59.39938
G1 X216.135 Y159.659 E59.42041
G1 X216.735 Y159.856 E59.44141
G1 X217.307 Y160.127 E59.46247
G1 X217.839 Y160.467 E59.48346
G1 X218.419 Y160.964 E59.50887
G1 X218.536 Y161.081 E59.51437
G1 X218.953 Y161.556 E59.5354
G1 X219.308 Y162.079 E59.55642
G1 X219.594 Y162.643 E59.57745
G1 X219.806 Y163.238 E59.59846
G1 X219.942 Y163.856 E59.61951
G1 X220 Y164.617 E59.64489
G1 X220 Y185.383 E60.33557
G1 X219.96 Y186.014 E60.3566
G1 X219.841 Y186.635 E60.37763
G1 X219.644 Y187.235 E60.39863
G1 X219.373 Y187.807 E60.41969
G1 X219.033 Y188.339 E60.44069
G1 X218.536 Y188.919 E60.46609
G1 X218.419 Y189.036 E60.47159
G1 X217.944 Y189.453 E60.49262
G1 X217.421 Y189.808 E60.51364
G1 X216.857 Y190.094 E60.53467
